img/tessercube--logotype-white.svg

<svg height="70" viewBox="0 0 140 70" width="140" xmlns="http://www.w3.org/2000/svg"><path d="m6.33 44v-16.65h-5.58v-3.33h14.94v3.33h-5.58v16.65zm12.81-5.16c0 1.77.63 2.46 2.85 2.46 1.41 0 2.88-.21 4.47-.69l.57 2.76c-1.65.63-3.63.93-5.37.93-4.59 0-6.18-2.13-6.18-5.64v-3.87c0-3.09 1.38-5.7 6.06-5.7s5.73 2.73 5.73 5.88v3.12h-8.13zm0-4.41v.72h4.65v-.72c0-1.38-.42-2.34-2.22-2.34s-2.43.96-2.43 2.34zm21.24 5.31c0 2.82-.87 4.56-5.28 4.56-1.56 0-3.69-.36-5.04-.84l.51-2.79c1.23.36 2.85.63 4.35.63 1.62 0 1.86-.36 1.86-1.47 0-.9-.18-1.35-2.55-1.92-3.57-.87-3.99-1.77-3.99-4.59 0-2.94 1.29-4.23 5.46-4.23 1.35 0 3.12.18 4.38.51l-.36 2.91c-1.11-.21-2.88-.42-4.02-.42-1.59 0-1.86.36-1.86 1.26 0 1.17.09 1.26 2.07 1.77 4.08 1.08 4.47 1.62 4.47 4.62zm13.41 0c0 2.82-.87 4.56-5.28 4.56-1.56 0-3.69-.36-5.04-.84l.51-2.79c1.23.36 2.85.63 4.35.63 1.62 0 1.86-.36 1.86-1.47 0-.9-.18-1.35-2.55-1.92-3.57-.87-3.99-1.77-3.99-4.59 0-2.94 1.29-4.23 5.46-4.23 1.35 0 3.12.18 4.38.51l-.36 2.91c-1.11-.21-2.88-.42-4.02-.42-1.59 0-1.86.36-1.86 1.26 0 1.17.09 1.26 2.07 1.77 4.08 1.08 4.47 1.62 4.47 4.62zm6.6-.9c0 1.77.63 2.46 2.85 2.46 1.41 0 2.88-.21 4.47-.69l.57 2.76c-1.65.63-3.63.93-5.37.93-4.59 0-6.18-2.13-6.18-5.64v-3.87c0-3.09 1.38-5.7 6.06-5.7s5.73 2.73 5.73 5.88v3.12h-8.13zm0-4.41v.72h4.65v-.72c0-1.38-.42-2.34-2.22-2.34s-2.43.96-2.43 2.34zm18.6-5.34.36 3.36c-1.41.63-2.55 1.29-3.87 2.13v9.42h-3.66v-14.61h3.09l.24 1.62c.81-.54 2.55-1.56 3.84-1.92zm8.61 15.21c-4.59 0-6.3-1.68-6.3-5.61v-3.99c0-3.93 1.71-5.61 6.3-5.61 1.02 0 2.49.18 3.57.54l-.45 3c-.99-.27-2.31-.39-3.03-.39-2.1 0-2.73.63-2.73 2.43v4.05c0 1.8.63 2.43 2.73 2.43.93 0 1.98-.12 3.03-.39l.45 3c-.96.33-2.37.54-3.57.54zm6.78-14.91h3.66v10.2c0 .78.33 1.17 1.17 1.17.9 0 2.49-.54 3.81-1.23v-10.14h3.66v14.61h-2.79l-.36-1.23c-1.83.9-4.14 1.53-5.85 1.53-2.43 0-3.3-1.71-3.3-4.32zm28.89 4.71v4.29c0 3.54-1.08 5.91-6.72 5.91-1.47 0-3.84-.15-5.67-.51v-20.37l3.66-.51v7.05c1.08-.45 2.73-.87 4.32-.87 3.15 0 4.41 1.92 4.41 5.01zm-8.73-1.05v8.01c.66.09 1.41.12 2.19.12 2.4 0 2.88-.96 2.88-2.67v-4.5c0-1.17-.51-1.8-1.86-1.8-1.02 0-2.31.42-3.21.84zm15.18 5.79c0 1.77.63 2.46 2.85 2.46 1.41 0 2.88-.21 4.47-.69l.57 2.76c-1.65.63-3.63.93-5.37.93-4.59 0-6.18-2.13-6.18-5.64v-3.87c0-3.09 1.38-5.7 6.06-5.7s5.73 2.73 5.73 5.88v3.12h-8.13zm0-4.41v.72h4.65v-.72c0-1.38-.42-2.34-2.22-2.34s-2.43.96-2.43 2.34z" fill="#fff"/></svg>

<?xml version="1.0" encoding="UTF-8"?>
<svg width="140px" height="70px" viewBox="0 0 140 70" version="1.1" xmlns="http://www.w3.org/2000/svg" xmlns:xlink="http://www.w3.org/1999/xlink">
    <!-- Generator: Sketch 53.2 (72643) - https://sketchapp.com -->
    <title>tessercube--logotype</title>
    <desc>Created with Sketch.</desc>
    <g id="Website" stroke="none" stroke-width="1" fill="none" fill-rule="evenodd">
        <g transform="translate(-30.000000, 0.000000)" fill="#FFFFFF" fill-rule="nonzero" id="Section-0">
            <g>
                <g id="NavBar">
                    <g id="Inner" transform="translate(30.000000, 0.000000)">
                        <g id="tessercube--logotype">
                            <path d="M6.33,44 L6.33,27.35 L0.75,27.35 L0.75,24.02 L15.69,24.02 L15.69,27.35 L10.11,27.35 L10.11,44 L6.33,44 Z M19.14,38.84 C19.14,40.61 19.77,41.3 21.99,41.3 C23.4,41.3 24.87,41.09 26.46,40.61 L27.03,43.37 C25.38,44 23.4,44.3 21.66,44.3 C17.07,44.3 15.48,42.17 15.48,38.66 L15.48,34.79 C15.48,31.7 16.86,29.09 21.54,29.09 C26.22,29.09 27.27,31.82 27.27,34.97 L27.27,38.09 L19.14,38.09 L19.14,38.84 Z M19.14,34.43 L19.14,35.15 L23.79,35.15 L23.79,34.43 C23.79,33.05 23.37,32.09 21.57,32.09 C19.77,32.09 19.14,33.05 19.14,34.43 Z M40.38,39.74 C40.38,42.56 39.51,44.3 35.1,44.3 C33.54,44.3 31.41,43.94 30.06,43.46 L30.57,40.67 C31.8,41.03 33.42,41.3 34.92,41.3 C36.54,41.3 36.78,40.94 36.78,39.83 C36.78,38.93 36.6,38.48 34.23,37.91 C30.66,37.04 30.24,36.14 30.24,33.32 C30.24,30.38 31.53,29.09 35.7,29.09 C37.05,29.09 38.82,29.27 40.08,29.6 L39.72,32.51 C38.61,32.3 36.84,32.09 35.7,32.09 C34.11,32.09 33.84,32.45 33.84,33.35 C33.84,34.52 33.93,34.61 35.91,35.12 C39.99,36.2 40.38,36.74 40.38,39.74 Z M53.79,39.74 C53.79,42.56 52.92,44.3 48.51,44.3 C46.95,44.3 44.82,43.94 43.47,43.46 L43.98,40.67 C45.21,41.03 46.83,41.3 48.33,41.3 C49.95,41.3 50.19,40.94 50.19,39.83 C50.19,38.93 50.01,38.48 47.64,37.91 C44.07,37.04 43.65,36.14 43.65,33.32 C43.65,30.38 44.94,29.09 49.11,29.09 C50.46,29.09 52.23,29.27 53.49,29.6 L53.13,32.51 C52.02,32.3 50.25,32.09 49.11,32.09 C47.52,32.09 47.25,32.45 47.25,33.35 C47.25,34.52 47.34,34.61 49.32,35.12 C53.4,36.2 53.79,36.74 53.79,39.74 Z M60.39,38.84 C60.39,40.61 61.02,41.3 63.24,41.3 C64.65,41.3 66.12,41.09 67.71,40.61 L68.28,43.37 C66.63,44 64.65,44.3 62.91,44.3 C58.32,44.3 56.73,42.17 56.73,38.66 L56.73,34.79 C56.73,31.7 58.11,29.09 62.79,29.09 C67.47,29.09 68.52,31.82 68.52,34.97 L68.52,38.09 L60.39,38.09 L60.39,38.84 Z M60.39,34.43 L60.39,35.15 L65.04,35.15 L65.04,34.43 C65.04,33.05 64.62,32.09 62.82,32.09 C61.02,32.09 60.39,33.05 60.39,34.43 Z M78.99,29.09 L79.35,32.45 C77.94,33.08 76.8,33.74 75.48,34.58 L75.48,44 L71.82,44 L71.82,29.39 L74.91,29.39 L75.15,31.01 C75.96,30.47 77.7,29.45 78.99,29.09 Z M87.6,44.3 C83.01,44.3 81.3,42.62 81.3,38.69 L81.3,34.7 C81.3,30.77 83.01,29.09 87.6,29.09 C88.62,29.09 90.09,29.27 91.17,29.63 L90.72,32.63 C89.73,32.36 88.41,32.24 87.69,32.24 C85.59,32.24 84.96,32.87 84.96,34.67 L84.96,38.72 C84.96,40.52 85.59,41.15 87.69,41.15 C88.62,41.15 89.67,41.03 90.72,40.76 L91.17,43.76 C90.21,44.09 88.8,44.3 87.6,44.3 Z M94.38,29.39 L98.04,29.39 L98.04,39.59 C98.04,40.37 98.37,40.76 99.21,40.76 C100.11,40.76 101.7,40.22 103.02,39.53 L103.02,29.39 L106.68,29.39 L106.68,44 L103.89,44 L103.53,42.77 C101.7,43.67 99.39,44.3 97.68,44.3 C95.25,44.3 94.38,42.59 94.38,39.98 L94.38,29.39 Z M123.27,34.1 L123.27,38.39 C123.27,41.93 122.19,44.3 116.55,44.3 C115.08,44.3 112.71,44.15 110.88,43.79 L110.88,23.42 L114.54,22.91 L114.54,29.96 C115.62,29.51 117.27,29.09 118.86,29.09 C122.01,29.09 123.27,31.01 123.27,34.1 Z M114.54,33.05 L114.54,41.06 C115.2,41.15 115.95,41.18 116.73,41.18 C119.13,41.18 119.61,40.22 119.61,38.51 L119.61,34.01 C119.61,32.84 119.1,32.21 117.75,32.21 C116.73,32.21 115.44,32.63 114.54,33.05 Z M129.72,38.84 C129.72,40.61 130.35,41.3 132.57,41.3 C133.98,41.3 135.45,41.09 137.04,40.61 L137.61,43.37 C135.96,44 133.98,44.3 132.24,44.3 C127.65,44.3 126.06,42.17 126.06,38.66 L126.06,34.79 C126.06,31.7 127.44,29.09 132.12,29.09 C136.8,29.09 137.85,31.82 137.85,34.97 L137.85,38.09 L129.72,38.09 L129.72,38.84 Z M129.72,34.43 L129.72,35.15 L134.37,35.15 L134.37,34.43 C134.37,33.05 133.95,32.09 132.15,32.09 C130.35,32.09 129.72,33.05 129.72,34.43 Z" id="Tessercube"></path>
                        </g>
                    </g>
                </g>
            </g>
        </g>
    </g>
</svg>
